dist/icons/svgs/files-solid.svg

<svg xmlns="http://www.w3.org/2000/svg" width="24" height="24" fill="currentcolor" class="icon-files-solid" viewBox="0 0 24 24">
  <path d="M15.75 2V5.75C15.75 6.45312 16.2969 7 17 7H20.75V15.75C20.75 17.1562 19.6172 18.25 18.25 18.25H9.5C8.09375 18.25 7 17.1562 7 15.75V4.5C7 3.13281 8.09375 2 9.5 2H15.75ZM20.75 5.75H18.9531H18.25H17V4.5V3.79688V2L18.25 3.25L19.5 4.5L20.75 5.75ZM5.125 6.6875V16.6875C5.125 18.6016 6.64844 20.125 8.5625 20.125H16.0625C16.5703 20.125 17 20.5547 17 21.0625C17 21.6094 16.5703 22 16.0625 22H8.5625C5.59375 22 3.25 19.6562 3.25 16.6875V6.6875C3.25 6.17969 3.64062 5.75 4.1875 5.75C4.69531 5.75 5.125 6.17969 5.125 6.6875Z"/>
</svg>

<svg xmlns="http://www.w3.org/2000/svg" width="24" height="24" fill="currentColor" class="icon-files-solid" viewBox="0 0 24 24">
  <path d="M15.75 2v3.75c0 .703.547 1.25 1.25 1.25h3.75v8.75c0 1.406-1.133 2.5-2.5 2.5H9.5a2.47 2.47 0 0 1-2.5-2.5V4.5C7 3.133 8.094 2 9.5 2zm5 3.75H17V2l1.25 1.25L19.5 4.5zm-15.625.938v10a3.42 3.42 0 0 0 3.438 3.437h7.5a.95.95 0 0 1 .937.938c0 .546-.43.937-.937.937h-7.5a5.27 5.27 0 0 1-5.313-5.312v-10c0-.508.39-.938.938-.938a.95.95 0 0 1 .937.938"/>
</svg>
